components/ui-node-icon/src/condition/condition.large.svg

<svg width="32" height="32" viewBox="0 0 32 32" fill="none" xmlns="http://www.w3.org/2000/svg">
  <path d="M13.8849 4.12516C15.0566 2.95446 16.9554 2.95488 18.1266 4.12609L28.0103 14.0098C29.1811 15.1806 29.1819 17.0787 28.0121 18.2506L18.1223 28.1578C16.9506 29.3315 15.049 29.3319 13.8768 28.1587L3.98447 18.2577C2.81341 17.0856 2.81425 15.1861 3.98633 14.015L13.8849 4.12516Z" fill="var(--tbl--colors--icons--clean--primary)"/>
  <path fill-rule="evenodd" clip-rule="evenodd" d="M16.25 12.5C16.25 11.1193 17.3693 10 18.75 10H19.25C19.8023 10 20.25 10.4477 20.25 11C20.25 11.5523 19.8023 12 19.25 12H18.75C18.4739 12 18.25 12.2239 18.25 12.5V14.0001H19.25C19.8023 14.0001 20.25 14.4478 20.25 15.0001C20.25 15.5524 19.8023 16.0001 19.25 16.0001H18.25V21C18.25 21.5523 17.8023 22 17.25 22C16.6977 22 16.25 21.5523 16.25 21V16.0001C15.6977 16.0001 15.25 15.5524 15.25 15.0001C15.25 14.4478 15.6977 14.0001 16.25 14.0001V12.5ZM13.25 14C13.8023 14 14.25 14.4477 14.25 15V21C14.25 21.5523 13.8023 22 13.25 22C12.6977 22 12.25 21.5523 12.25 21V15C12.25 14.4477 12.6977 14 13.25 14ZM13.25 11C12.5596 11 12 11.5596 12 12.25C12 12.9404 12.5596 13.5 13.25 13.5C13.9404 13.5 14.5 12.9404 14.5 12.25C14.5 11.5596 13.9404 11 13.25 11Z" fill="white"/>
</svg>

<svg xmlns="http://www.w3.org/2000/svg" width="32" height="32" fill="none" viewBox="0 0 32 32">
  <path fill="var(--tbl--colors--icons--clean--primary)" d="M13.885 4.125a3 3 0 0 1 4.242.001l9.883 9.884a3 3 0 0 1 .002 4.24l-9.89 9.908a3 3 0 0 1-4.245 0l-9.893-9.9a3 3 0 0 1 .002-4.243l9.899-9.89Z"/>
  <path fill="#fff" fill-rule="evenodd" d="M16.25 12.5a2.5 2.5 0 0 1 2.5-2.5h.5a1 1 0 1 1 0 2h-.5a.5.5 0 0 0-.5.5V14h1a1 1 0 1 1 0 2h-1v5a1 1 0 1 1-2 0v-5a1 1 0 1 1 0-2v-1.5Zm-3 1.5a1 1 0 0 1 1 1v6a1 1 0 1 1-2 0v-6a1 1 0 0 1 1-1Zm0-3a1.25 1.25 0 1 0 0 2.5 1.25 1.25 0 0 0 0-2.5Z" clip-rule="evenodd"/>
</svg>
